X:1
T:All-conquering Lord, whom sinners adore
T:All-conquering Lord, whom sinners adore (Thomas Clark)
C:Thomas Clark
Z:p8, A Fifth Set of
Z:Psalm and Hymn Tunes,
Z:London: [c1809]
%%score [ 1 2 3 4 ]
L:1/8
M:3/4
K:C
V:1 treble nm="SOPRANO" snm="S."
V:2 treble nm="ALTO" snm="A."
V:3 treble-8 transpose=-12 nm="TENOR" snm="T."
V:4 bass nm="BASS" snm="B."
V:1
 G2 | c3 c c2 | c4 d2 | e3 f (ed) | c4 e2 | d3 d c2 | B4 d2 | c2 B2 A2 | G4 G2 | c2 (CD) (EF) | %10
w: O|why should he|take thy|pur- chase a- *|way? Thy|fu- ry a-|wake, and|fly on the|prey; Thy|pur- chase _ re- *|
w: All-|con- quer- ing|Lord, whom|sin- ners a- *|dore, Re-|mem- ber thy|word, and|stir up thy|pow’r: Drive|Sa- tan _ be- *|
w: O|pi- ty, and|spare, and|save them from _|death, Pluck’d|out of his|snare, snatch’d|out of his|teeth; Al-|migh- ty _ re- *|
 G2 G2 B2 | c3 d e2 | f4!p! e2 | e2 d2 c2 | c2 B2 c2 | f2 f2 e2 | (!fermata!e2 d2)!f! d2 | %17
w: co- ver, that|Sa- tan may|feel Thy|king- dom is|o- ver earth,|hea- ven, and|hell, _ thy|
w: fore thee, his|ad- vo- cates|chase, Or|let them a-|dore thee, or|yield to thy|grace, _ or|
w: dee- mer, to|whom all things|bow, Cast|down the blas-|phe- mer, and|re- scue them|now, _ cast|
 e2 d2 c2 | f2 !fermata!e2 c2 | d2 c2 B2 | c4 |] %21
w: king- dom is|o- ver earth,|hea- ven, and|hell.|
w: let them a-|dore thee, or|yield to thy|grace.|
w: down the blas-|phe- mer, and|re- scue them|now.|
V:2
 E2 | G3 G A2 | G4 G2 | G3 A (GF) | E4 G2 | G3 G ^F2 | G4 G2 | E2 D2 C2 | B,4 G,2 | C2 (CD) (EF) | %10
w: O|why should he|take thy|pur- chase a- *|way? Thy|fu- ry a-|wake, and|fly on the|prey; Thy|pur- chase _ re- *|
w: All-|con- quer- ing|Lord, whom|sin- ners a- *|dore, Re-|mem- ber thy|word, and|stir up thy|pow’r: Drive|Sa- tan _ be- *|
w: O|pi- ty, and|spare, and|save them from _|death, Pluck’d|out of his|snare, snatch’d|out of his|teeth; Al-|migh- ty _ re- *|
 G2 G2 G2 | G3 G G2 | G4 z2 | z6 | z6 | z6 | z4"^["!f!"^]" !fermata!G2 | G2 G2 G2 | %18
w: co- ver, that|Sa- tan may|feel||||Thy|king- dom is|
w: fore thee, his|ad- vo- cates|chase,||||Or|let them a-|
w: dee- mer, to|whom all things|bow,||||Cast|down the blas-|
 C2 !fermata!E2 G2 | F2 E2 D2 | E4 |] %21
w: o- ver earth,|hea- ven, and|hell.|
w: dore thee, or|yield to thy|grace.|
w: phe- mer, and|re- scue them|now.|
V:3
 c2 | e3 e f2 | c4 B2 | c3 c (cB) | c4 c2 | d3 d d2 | d4 G2 | G2 G2 ^F2 | G4 G2 | c2 (CD) (EF) | %10
w: O|why should he|take thy|pur- chase a- *|way? Thy|fu- ry a-|wake, and|fly on the|prey; Thy|pur- chase _ re- *|
w: All-|con- quer- ing|Lord, whom|sin- ners a- *|dore, Re-|mem- ber thy|word, and|stir up thy|pow’r: Drive|Sa- tan _ be- *|
w: O|pi- ty, and|spare, and|save them from _|death, Pluck’d|out of his|snare, snatch’d|out of his|teeth; Al-|migh- ty _ re- *|
 G2 G2 d2 | c3 c c2 | d4 z2 | z6 | z6 | z6 | z4!f! !fermata!B2 | c2 d2 e2 | c2 !fermata!c2 c2 | %19
w: co- ver, that|Sa- tan may|feel||||Thy|king- dom is|o- ver earth,|
w: fore thee, his|ad- vo- cates|chase,||||Or|let them a-|dore thee, or|
w: dee- mer, to|whom all things|bow,||||Cast|down the blas-|phe- mer, and|
 A2 G2 G2 | G4 |] %21
w: hea- ven, and|hell.|
w: yield to thy|grace.|
w: re- scue them|now.|
V:4
 C,2 | C,3 C, F,2 |"^6" E,4 G,2 | C3 F,"^64""^73" G,2 | C,4 C2 |"^6" B,3 B,"^´43" A,2 | %6
w: O|why should he|take thy|pur- chase a-|way? Thy|fu- ry a-|
w: All-|con- quer- ing|Lord, whom|sin- ners a-|dore, Re-|mem- ber thy|
w: O|pi- ty, and|spare, and|save them from|death, Pluck’d|out of his|
 G,4"^6" B,,2 | C,2"^64" D,2"^7#" D,2 | G,,4"^unis." G,2 | C2 (C,D,) (E,F,) | G,2 G,2"^42" F,2 | %11
w: wake, and|fly on the|prey; Thy|pur- chase _ re- *|co- ver, that|
w: word, and|stir up thy|pow’r: Drive|Sa- tan _ be- *|fore thee, his|
w: snare, snatch’d|out of his|teeth; Al-|migh- ty _ re- *|dee- mer, to|
"^6" E,3 D, C,2 |"^65" B,,4"^["!p!"^]" C,2 |"^7" F,2"^6" F,2"^6" E,2 |"^7" D,2"^6" D,2 C,2 | %15
w: Sa- tan may|feel Thy|king- dom is|o- ver earth,|
w: ad- vo- cates|chase, Or|let them a-|dore thee, or|
w: whom all things|bow, Cast|down the blas-|phe- mer, and|
"^Notes:The order of staves in the source is Tenor - [Alto] - Air - [Bass], with the alto part printed in the treble clef an octave abovesounding pitch.Only the first verse of text is given in the source: subsequent verses have here been added editorially.""^65" B,,2 B,,2 C,2 | %16
w: hea- ven, and|
w: yield to thy|
w: re- scue them|
"^64""^53" !fermata!G,4"^["!f!"^]" G,2 | C2"^6" B,2 C2 |"^6" A,2"^64" !fermata!G,2"^6" E,2 | %19
w: hell, thy|king- dom is|o- ver earth,|
w: grace, or|let them a-|dore thee, or|
w: now, cast|down the blas-|phe- mer, and|
"^6" F,2"^64" G,2"^53" G,,2 | C,4 |] %21
w: hea- ven, and|hell.|
w: yield to thy|grace.|
w: re- scue them|now.|

